pk/selected-focus.svg

<svg viewBox="0 0 48 48" fill="none" xmlns="http://www.w3.org/2000/svg" height="1em" width="1em">
  <path d="M12 4H4v8h8V4Zm32 32h-8v8h8v-8Zm-32 0H4v8h8v-8ZM44 4h-8v8h8V4Z" fill="#2F88FF" stroke="#000" stroke-width="4" stroke-linejoin="round"/>
  <path d="M8 36V12m32 24V12M12 8h24M12 40h24" stroke="#000" stroke-width="4" stroke-linecap="round" stroke-linejoin="round" stroke-dasharray="1 5"/>
</svg>

<svg viewBox="0 0 48 48" fill="none" xmlns="http://www.w3.org/2000/svg" height="1em" width="1em">
  <path d="M12 4H4V12H12V4Z" fill="#2F88FF" stroke="black" stroke-width="4" stroke-linejoin="round"/>
  <path d="M44 36H36V44H44V36Z" fill="#2F88FF" stroke="black" stroke-width="4" stroke-linejoin="round"/>
  <path d="M12 36H4V44H12V36Z" fill="#2F88FF" stroke="black" stroke-width="4" stroke-linejoin="round"/>
  <path d="M44 4H36V12H44V4Z" fill="#2F88FF" stroke="black" stroke-width="4" stroke-linejoin="round"/>
  <path d="M8 36V12" stroke="black" stroke-width="4" stroke-linecap="round" stroke-linejoin="round" stroke-dasharray="1 5"/>
  <path d="M40 36V12" stroke="black" stroke-width="4" stroke-linecap="round" stroke-linejoin="round" stroke-dasharray="1 5"/>
  <path d="M12 8H36" stroke="black" stroke-width="4" stroke-linecap="round" stroke-linejoin="round" stroke-dasharray="1 5"/>
  <path d="M12 40H36" stroke="black" stroke-width="4" stroke-linecap="round" stroke-linejoin="round" stroke-dasharray="1 5"/>
</svg>
